X:1
T:Title
%%score { ( 1 4 ) | ( 2 3 ) }
L:1/8
M:4/4
K:Ab
V:1 treble nm="Grand Piano"
V:4 treble 
V:2 bass 
V:3 bass 
V:1
 z4 z2[Q:1/4=100] [CE]2 | [Ec]2 [CA]2 BA .[DFG]2 | [B,DF]3 [G,DE] [A,CE]2 [CE]2 | %3
 [Ed]2 [Ec]2 cBAB | c3 B B2 c2 | e2 c2 dcBA | [Fd]3 F F2 F2 | E2 A2 AGFG |[M:3/4] [CA]6 | %9
[M:1/4] cd |[M:4/4] e2 e2 e3 c | d2- [Gd-][Gd-] [Gd]2 [GB][Ac] | [Bd]2 [Ge]2 [GB]3 [Gd] | %13
 [EA]2 z2 z2 .[CA]2 | [EAc]2 [EAc]2 [DGB]2 [CA]2 | %15
[M:9/8] [FB]>[FA][FB]- [FB]/[Fc]/ [Fd]2- [Fd] [Ed]2 |[M:4/4] [Ec]>[DB] A>F E2 G2 |[M:3/4] [CA]6 |] %18
V:2
 z4 z2 [A,,A,]2 | [A,,A,]2 [A,,E,]2 [D,F,D]2 z A | E,3 E, A,,2 A,,2 | %3
 [E,B,]2 [E,A,]2 [B,,A,]2 [B,,F,]2 | [E,A,E]3 [E,G,E] [E,G,E]2[K:treble] [A,E]2 | %5
 [A,CA]2[K:bass] [A,E]2 [D,A,]2 [D,A,]2 | [D,A,]3 [D,A,D] [D,A,D]2 [D,A,D]2 | %7
 [E,A,C]2 [E,CE]2 [E,B,D]2 [E,B,D]2 |[M:3/4] [A,,A,]6 |[M:1/4] [A,E]2 | %10
[M:4/4][K:treble] [A,CA]2 [A,CA]2 [A,CA]3 [A,A] | [E,B,]2 [E,B,][E,B,] [E,B,]2 [E,E]2 | %12
 [E,E]2 [E,B,]2 [E,E]3 [E,E] | A,,2 A,,A,, A,,2 z D | A,2 A,2 E,2 F,2 | %15
[M:9/8] [D,D]>[D,D][D,D]- [D,D]/[D,C]/ [D,B,]2- [D,B,] [E,G,]2 | %16
[M:4/4] [A,,A,]>[B,,G,] [C,A,C]>[D,A,D] [E,A,C]2 [E,B,D]2 |[M:3/4] [A,,A,]6 |] %18
V:3
 x8 | z4 z2 D,2 | x8 | x8 | x6[K:treble] x2 | x2[K:bass] x6 | x8 | x8 |[M:3/4] x6 |[M:1/4] z B, | %10
[M:4/4][K:treble] x8 | x8 | x8 | z4 z2 A,,2 | x8 |[M:9/8] x9 |[M:4/4] x8 |[M:3/4] x6 |] %18
V:4
 x8 | x8 | x8 | z4 =D2 D2 | x8 | z4 F2 F2 | x8 | x8 |[M:3/4] x6 |[M:1/4] x2 |[M:4/4] x8 | %11
 G2 z2 z4 | x8 | c2- [A,Ec-][A,Ec-] [A,Ec]2 E-[EB] | x8 |[M:9/8] x9 |[M:4/4] x8 |[M:3/4] x6 |] %18

